X: 306
T:A la mort / Monstra te esse matrem
N: Derived from Jos2701-A_la_mort__Monstra_te_esse_matrem.krn
C: Josquin des Prez
%%abc-version 2.0
%%abcx-abcm2ps-target-version 5.9.1 (29 Sep 2008)
%%abc-creator hum2abc beta
%%abcx-conversion-date 2019/02/12 16:15:54
%%abc-edited-by Jesse Rodin
%%abc-edited-by Jesse Rodin; Victoria Chang 2011/05/30/
%%abcx-initial-encoding-date 2011/05/30/
%%humdrum-veritas 4244737605
%%humdrum-veritas-data 1908046177
%%linebreak <none>
%%barnumbers 0
L: 1/4
M: 2/1
Q: 1/2=120
V: 1 clef=treble
V: 2 clef=treble-8
V: 3 clef=bass
K: C
[V:1] D4D4 | 
[V:2] z8 | 
[V:3] z8 | 
[V:1] A8 | 
[V:2] A4A4 | 
[V:3] z8 | 
[V:1] G4G4 | 
[V:2] e8- | 
[V:3] z8 | 
[V:1] G4G4 | 
[V:2] e8 | 
[V:3] z8 | 
[V:1] F6ED | 
[V:2] d4d4 | 
[V:3] z8 | 
[V:1] F3GA3B | 
[V:2] d4d4 | 
[V:3] D,8 | 
[V:1] c2ABcde2- | 
[V:2] c6BA | 
[V:3] A,8 | 
[V:1] edd4^c2 | 
[V:2] c2d2e4 | 
[V:3] A,6G,A, | 
[V:1] d4z4 | 
[V:2] d8 | 
[V:3] B,8- | 
[V:1] D4D4 | 
[V:2] z4G4 | 
[V:3] B,8 | 
[V:1] D4G4- | 
[V:2] G4G4 | 
[V:3] z8 | 
[V:1] G4G4 | 
[V:2] c8 | 
[V:3] z8 | 
[V:1] A4A4 | 
[V:2] c4d4 | 
[V:3] z8 | 
[V:1] B4z2B2 | 
[V:2] d4e4 | 
[V:3] G,8 | 
[V:1] c3BA4 | 
[V:2] z2A2c2d2 | 
[V:3] A,8 | 
[V:1] G3FGAG2- | 
[V:2] e3defe2- | 
[V:3] C8 | 
[V:1] G2EFGAG2- | 
[V:2] edc4BA | 
[V:3] z8 | 
[V:1] G2FED2G2- | 
[V:2] G8 | 
[V:3] B,8 | 
[V:1] GEA2G2c2 | 
[V:2] z4e4 | 
[V:3] C8 | 
[V:1] B2A4GF | 
[V:2] f6ef | 
[V:3] D8 | 
[V:1] E4z2A2 | 
[V:2] g4c4 | 
[V:3] C4A,4 | 
[V:1] G2F4ED | 
[V:2] d6cd | 
[V:3] B,8 | 
[V:1] C8 | 
[V:2] e8 | 
[V:3] A,8 | 
[V:1] F6ED | 
[V:2] d8 | 
[V:3] z8 | 
[V:1] E4E4 | 
[V:2] g4g4 | 
[V:3] z8 | 
[V:1] D4D4 | 
[V:2] f6ed | 
[V:3] z8 | 
[V:1] G6FE | 
[V:2] e4c4 | 
[V:3] z8 | 
[V:1] F4F4 | 
[V:2] d4d4 | 
[V:3] z8 | 
[V:1] E4z2A,2 | 
[V:2] A3Bc3d | 
[V:3] z8 | 
[V:1] C3DE2F2 | 
[V:2] e4c4 | 
[V:3] A,,8 | 
[V:1] G3FEDE2- | 
[V:2] B2edcBc2 | 
[V:3] E,8 | 
[V:1] E2C2B,4 | 
[V:2] BAA4^G2 | 
[V:3] E,6D,E, | 
[V:1] A,4z4 | 
[V:2] A8 | 
[V:3] F,8- | 
[V:1] A8 | 
[V:2] z4A4 | 
[V:3] F,8 | 
[V:1] A4A4 | 
[V:2] c4d4 | 
[V:3] z8 | 
[V:1] G3AB2c2- | 
[V:2] e2c2d2e2 | 
[V:3] z8 | 
[V:1] cBAGB2A2- | 
[V:2] f3edcd2- | 
[V:3] z8 | 
[V:1] AGG4^F2 | 
[V:2] d2B2A4 | 
[V:3] D,8 | 
[V:1] G4E4 | 
[V:2] G6A2 | 
[V:3] E,8 | 
[V:1] D4z2G2- | 
[V:2] B4B4 | 
[V:3] G,8 | 
[V:1] G2A2G2A2- | 
[V:2] c8 | 
[V:3] z8 | 
[V:1] ABc4BA | 
[V:2] c4d4- | 
[V:3] F,8 | 
[V:1] B2A2G2F2 | 
[V:2] d2cde4- | 
[V:3] G,8 | 
[V:1] E4c4 | 
[V:2] e4c4 | 
[V:3] A,8 | 
[V:1] B3AB2c2- | 
[V:2] d2e3dcB | 
[V:3] G,4E,4 | 
[V:1] cBAGA2c2- | 
[V:2] A2c4BA | 
[V:3] F,8 | 
[V:1] c2BAc2B2- | 
[V:2] e2gfede2- | 
[V:3] E,8 | 
[V:1] BAA4^G2 | 
[V:2] e2c2B4 | 
[V:3] z8 | 
[V:1] A8 |]  
[V:2] A8 |]  
[V:3] A,,8 |]  



